!!!OTL: Rettung.
!!!OTL-incipit: MEIN MAEDCHEN WARD MIR UNGETREU
!!!COM: J. Fr. Reichardt
!!!ARE: Europa, Mitteleuropa, Deutschland
!!!SCT: F0832
!!!TXL: @@DE
!!!YEM: Copyright 1995, estate of Helmut Schaffrath.
**kern	**text
*ICvox	*
*clefG2	*
*M2/4	*
*k[b-e-a-]	*
*E-:	*
!LO:TX:a:t=Leicht erʒählend.	!
!LO:TX:a:t=P:only the highest voice encoded:problem	!
{8b-	1._Mein
=1	=1
8b-	Mä-
8b-	-del
8g	ward
8e-	mir
=2	=2
4a-''	un-
4f''	-ge-
=3	=3
4e-''	-treu;
8r}	.
{8b-/	das
=4	=4
8.b-/	mach-
16b-/	-te
8cc/	mich
8dd/	ʒum
=5	=5
8ee-/	Freuden-
8dd/	.
8cc/	-haſ-
16b-/}	-ſer,
{16f	da
=6	=6
8.b-/	lief
16b-/	ich
8cc/	an
8dd/	ein
=7	=7
8ee-/	fließend
8dd/	.
16ddqq	.
8cc/	Waſſer,
16b-/}	.
{16ee-/	das
=8	=8
8cc/	Waſſer
8b-/	.
8a-	lief
8g	bei
=9	=9
4f''	mir
4d''	vor-
=10	=10
4e-''	-bei.
8r}	.
==	==
!!!AGN: erzaehlendes Volks - Lied, Ballade
!!!ONB: ESAC (Essen Associative Code) Database: FINK
!!!AMT: simple duple
!!!AIN: vox
!!!EED: Helmut Schaffrath
!!!EEV: 1.0
!!Text: J. W. Goethe
!!!GTL: Romanzen und Balladen
!!!source: Musikalischer Hausschatz der Deutschen. Eine Sammlung von über 1000 Liedern und Gesängen mit Singstimmen und Klavierbegleitung. Leipzig, Litterarisches Verlags-Haus.
!!!page: 586
!!!URL-scan: https://www.digitale-sammlungen.de/en/view/bsb11144622?page=522
!!!ENC: Anna Maria Matuszewska
!!!EEV: 2024/08/07
*-	*-